svgs/nature/u26C4.layer3.svg

<svg xmlns="http://www.w3.org/2000/svg" viewBox="0 0 512 512" enable-background="new 0 0 512 512"><path fill="#132028" d="M210.21 137.444c6.35 0 11.497 5.147 11.497 11.497v14.134c0 6.35-5.147 11.497-11.497 11.497s-11.497-5.146-11.497-11.496V148.94c0-6.35 5.148-11.496 11.497-11.496zm81.528 0c-6.35 0-11.497 5.147-11.497 11.497v14.134c0 6.35 5.15 11.497 11.5 11.497s11.496-5.146 11.496-11.496V148.94c0-6.35-5.147-11.496-11.497-11.496zm57.487-26.89v-8.566c0-6.6-5.4-12-12-12h-170.6c-6.6 0-12 5.4-12 12v8.566c0 6.6 5.4 12 12 12h170.6c6.6 0 12-5.4 12-12zm-97.3 215.684c-5.956 0-10.784 4.83-10.784 10.785 0 5.957 4.83 10.785 10.787 10.785 5.957 0 10.785-4.83 10.785-10.785 0-5.957-4.828-10.785-10.784-10.785zm0 67.408c-5.956 0-10.784 4.83-10.784 10.785s4.83 10.787 10.787 10.787c5.957 0 10.785-4.83 10.785-10.785s-4.828-10.784-10.784-10.784z"/></svg>

<?xml version="1.0" encoding="iso-8859-1"?>
<!-- Generator: Adobe Illustrator 18.1.0, SVG Export Plug-In . SVG Version: 6.00 Build 0)  -->
<!DOCTYPE svg PUBLIC "-//W3C//DTD SVG 1.1//EN" "http://www.w3.org/Graphics/SVG/1.1/DTD/svg11.dtd">
<svg version="1.1" xmlns="http://www.w3.org/2000/svg" xmlns:xlink="http://www.w3.org/1999/xlink" x="0px" y="0px"
	 viewBox="0 0 512 512" enable-background="new 0 0 512 512" xml:space="preserve">
<g id="Layer_2">
</g>
<g id="Layer_3">
</g>
<g id="Layer_5">
</g>
<g id="Layer_4">
	<path fill="#132028" d="M210.21,137.444c6.35,0,11.497,5.147,11.497,11.497v14.132c0,6.35-5.147,11.497-11.497,11.497l0,0
		c-6.35,0-11.497-5.147-11.497-11.497v-14.132C198.713,142.591,203.861,137.444,210.21,137.444L210.21,137.444z M291.738,137.444
		c-6.35,0-11.497,5.147-11.497,11.497v14.132c0,6.35,5.147,11.497,11.497,11.497l0,0c6.35,0,11.497-5.147,11.497-11.497v-14.132
		C303.235,142.591,298.088,137.444,291.738,137.444L291.738,137.444z M349.225,110.554v-8.566c0-6.6-5.4-12-12-12H166.626
		c-6.6,0-12,5.4-12,12v8.566c0,6.6,5.4,12,12,12h170.599C343.825,122.554,349.225,117.154,349.225,110.554z M251.926,326.238
		c-5.957,0-10.785,4.829-10.785,10.785c0,5.957,4.829,10.785,10.785,10.785c5.957,0,10.785-4.829,10.785-10.785
		C262.711,331.066,257.882,326.238,251.926,326.238z M251.926,393.646c-5.957,0-10.785,4.829-10.785,10.785
		s4.829,10.785,10.785,10.785c5.957,0,10.785-4.829,10.785-10.785S257.882,393.646,251.926,393.646z"/>
</g>
<g id="Layer_6">
</g>
</svg>
